icons/investigation-24.svg

<?xml version="1.0" encoding="UTF-8"?><svg id="icons" xmlns="http://www.w3.org/2000/svg" viewBox="0 0 24 24"><path d="M1,20.55957c0,.79443,.64648,1.44043,1.44043,1.44043H21.56055c.79395,0,1.43945-.646,1.43945-1.43994V6.44043c0-.79443-.64648-1.44043-1.44043-1.44043h-4.55957v-1.5c0-.82849-.67157-1.5-1.5-1.5h-7c-.82843,0-1.5,.67151-1.5,1.5v1.5H2.43945c-.78064,0-1.41437,.62537-1.43555,1.401l-.00391,14.15857Zm15-9.55957h1v3h-1v-3ZM8,3.5c0-.27539,.22412-.5,.5-.5h7c.27588,0,.5,.22461,.5,.5v1.5H8v-1.5ZM2.50049,6H21.45898c.08075,0,.1568,.02283,.2265,.05865,.07013,.03668,.12292,.08112,.1532,.1167,.00031,.00037,.00085,.00055,.00116,.00092,.00006,.00006,0,.00006,.00006,.00012,.00006,.00012,.00037,.00024,.00043,.00037,.02954,.03497,.06543,.0929,.09058,.16669,.02533,.07208,.03735,.14441,.0271,.20734l-.00629,.02704c-.00031,.00201,.00079,.00317,.00043,.00519l-.58203,2.49316c-.27808,1.66656-1.68927,2.87701-3.37012,2.91644v-1.99261h-3v2h-6v-2h-3v1.99628c-1.69897-.02026-3.13031-1.23987-3.41064-2.9201l-.58203-2.49316c-.00024-.00146,.00055-.0022,.00031-.00366l-.00665-.02856c-.01074-.06567,.00195-.13861,.02771-.21002,.02509-.07275,.06091-.12933,.08997-.164,.03021-.03577,.08392-.08105,.15497-.11816,.0697-.03589,.14569-.05859,.22638-.05859h.00049Zm4.49951,5h1v3h-1v-3Zm14.56055,10H2.44043c-.24316,0-.44043-.19775-.44043-.44043V10.44531c.72614,1.51532,2.24561,2.53467,4,2.55096v2.00372h3v-2h6v2h3v-2.00739c1.77051-.03241,3.29791-1.09113,4-2.63837v10.20581c0,.24268-.19727,.43994-.43945,.43994Zm1.37799-14.25305c.00098-.00604,.00012-.01202,.00104-.01807-.00092,.00598,0,.01172-.00098,.0177l-.00006,.00037Z"/><path fill="none" d="M0 0h24v24H0z"/></svg>

<svg xmlns="http://www.w3.org/2000/svg" viewBox="0 0 24 24"><path d="M1 20.56c0 .794.646 1.44 1.44 1.44h19.12c.795 0 1.44-.646 1.44-1.44V6.44C23 5.646 22.354 5 21.56 5H17V3.5A1.5 1.5 0 0 0 15.5 2h-7A1.5 1.5 0 0 0 7 3.5V5H2.44a1.44 1.44 0 0 0-1.436 1.401L1 20.56zM16 11h1v3h-1v-3zM8 3.5a.5.5 0 0 1 .5-.5h7a.5.5 0 0 1 .5.5V5H8V3.5zM2.5 6h18.96a.49.49 0 0 1 .226.059c.07.036.123.08.154.116v.001h.001c.03.036.066.094.09.167a.433.433 0 0 1 .028.208l-.006.027v.005l-.582 2.493A3.485 3.485 0 0 1 18 11.993V10h-3v2H9v-2H6v1.996a3.487 3.487 0 0 1-3.41-2.92l-.583-2.493v-.004l-.006-.028a.428.428 0 0 1 .028-.21.53.53 0 0 1 .09-.164.53.53 0 0 1 .155-.118A.493.493 0 0 1 2.5 6zM7 11h1v3H7v-3zm14.56 10H2.44a.44.44 0 0 1-.44-.44V10.445a4.47 4.47 0 0 0 4 2.551V15h3v-2h6v2h3v-2.007a4.478 4.478 0 0 0 4-2.639V20.56a.44.44 0 0 1-.44.44zm1.38-14.253v-.018.018z"/><path fill="none" d="M0 0h24v24H0z"/></svg>
